icon_installer/data/icons/scalable/actions/show-banner-symbolic.svg

<?xml version="1.0" encoding="UTF-8"?>
<svg height="16px" viewBox="0 0 16 16" width="16px" xmlns="http://www.w3.org/2000/svg">
    <g fill="#222222">
        <path d="m 0 0.972656 v 2 h 0.0117188 v 4.035156 h 13.9921872 l 0.007813 9 h 2 l -0.011719 -11.988281 c 0 -1.644531 -1.355469 -3.046875 -3 -3.046875 z m 12.457031 2.027344 c 0.828125 0 1.5 0.675781 1.5 1.507812 c 0 0.832032 -0.671875 1.503907 -1.5 1.503907 s -1.5 -0.671875 -1.5 -1.503907 c 0 -0.832031 0.671875 -1.507812 1.5 -1.507812 z m 0 0"/>
        <path d="m 15 12 h -14.9882812 v -5.980469 h 14.9882812 z m 0 0" fill-opacity="0.34902"/>
        <path d="m -0.0351562 12 v 1 h 15.0351562 v -1 z m 0 0"/>
    </g>
    <path d="m 7 8 h 4 c 0.550781 0 1 0.449219 1 1 v 1 c 0 0.550781 -0.449219 1 -1 1 h -4 c -0.550781 0 -1 -0.449219 -1 -1 v -1 c 0 -0.550781 0.449219 -1 1 -1 z m 0 0" fill="#212121"/>
</svg>

<svg xmlns="http://www.w3.org/2000/svg" width="16" height="16"><g fill="#222"><path d="M0 .973v2h.012v4.035h13.992l.008 9h2L16 4.02c0-1.645-1.355-3.047-3-3.047zM12.457 3c.828 0 1.5.676 1.5 1.508a1.501 1.501 0 1 1-3 0c0-.832.672-1.508 1.5-1.508zm0 0"/><path fill-opacity=".349" d="M15 12H.012V6.02H15zm0 0"/><path d="M-.035 12v1H15v-1zm0 0"/></g><path fill="#212121" d="M7 8h4c.55 0 1 .45 1 1v1c0 .55-.45 1-1 1H7c-.55 0-1-.45-1-1V9c0-.55.45-1 1-1zm0 0"/></svg>
